X:48
T:Garrett Barry
Z: id:dc-jig-40
M:6/8
L:1/8
K:D Mixolydian
A,|DEF G3|A3 cde|dcA d2e|fed cAG|!
F3 G3|A3 cde|dcA GEA|DED D2:|!
A|dcA d2e|f3 e3|dcA c2d|ege ecA|!
dcA d2e|f3 e3|dcA GEA|DED D2:|!

